X:692
T:Trip To Windsor #1
C:Joe Buchanan's Scottish Tome - Page 219.1
I:219 1
Z:Carl Allison
C:Dan R. MacDonald
R:Reel
S:Air, Strathspey, Hornpipe and Highland Schottische
L:1/8
M:4/4
K:A
B | ((3AAA) (GA) Ace=g | ((3fff) f=g fef=g | agfe fgaf | ecBc AFEF |
((3AAA) (GA) Ace=g | ((3fff) f=g fef=g | agfe fgaf | ecBc cA A2 :|
c | efec efae | ((3fga) (ec) BAcB | AFEC EFAE | ((3FGA) (EC) B,A,CB, |
A, (CE) FECE | AEcB Aceg | agfe fgaf | ecBd cAAc |
efec efae | ((3fga) (ec) BAcB | AFEC EFAE | ((3FGA) (EC) B,A,CB, |
A, (CE) FECE | AEcB Aceg | agfe fgaf | ecBc A4 |]

